typst-based-book/src/assets/left.svg

<?xml version="1.0" encoding="UTF-8"?>
<svg fill="none" stroke="" viewBox="0 0 24 24" xmlns="http://www.w3.org/2000/svg">
<path d="m15.488 4.4306c0.3145 0.26957 0.3509 0.74304 0.0813 1.0575l-5.5816 6.5119 5.5816 6.5119c0.2696 0.3145 0.2332 0.788-0.0813 1.0576-0.3145 0.2695-0.788 0.2331-1.0575-0.0814l-6-7c-0.24075-0.2809-0.24075-0.6953 0-0.9762l6-7c0.2695-0.31449 0.743-0.35092 1.0575-0.08135z" clip-rule="evenodd" fill="#fff" fill-rule="evenodd"/>
</svg>

<svg viewBox="0 0 24 24" fill="none" xmlns="http://www.w3.org/2000/svg" stroke=""><g stroke-width="0"></g><g stroke-linecap="round" stroke-linejoin="round"></g><g> <path fill-rule="evenodd" clip-rule="evenodd" d="M15.4881 4.43057C15.8026 4.70014 15.839 5.17361 15.5694 5.48811L9.98781 12L15.5694 18.5119C15.839 18.8264 15.8026 19.2999 15.4881 19.5695C15.1736 19.839 14.7001 19.8026 14.4306 19.4881L8.43056 12.4881C8.18981 12.2072 8.18981 11.7928 8.43056 11.5119L14.4306 4.51192C14.7001 4.19743 15.1736 4.161 15.4881 4.43057Z" fill="#fff"></path> </g></svg>
